X:3
T:Chelsea Bridge
C:Billy Strayhorn
L:1/8
M:C
I:linebreak $
K:Db
"Db" z2 B,C DE (3FGA S||"Eb7" =A6 B2 |"Db7" =G6 _A2 |"Eb7" =A2 B2"Db7" =G2 _A2 |"Bb7" =D8 |$
"Ebm" FD- D6 |"Ab7" FA- A6 |"Db" FD- D2-"_Fine" D4 :|"Ebø" z8 "Ab7" x4||
[K:E]"F#m" (3B2 B2 B2"B7" B4 |$"E" z2 D/E/G/B/"C#m" d/f/c z2 |"F#m" (3B2 g2 e2"B7" (3c2 =c2 B2 |
"Bm" =d4"E7" z2 EF ||[K:G]"A" ^G3 A"Am" e2"D7" dc |$"G" Bd- d2-"C" d2 cB ||
[K:Db]"Gm" (3B2 =G2 B2 (3=d2 B2 =d2 |"E7" =g2 =B,C =D=E"_D.S. al Fine" (3F=GA ||

